!!!COM: Franz Schubert
!!!OTL: Op.59
!!!OMV: Du bist die Ruh
**kern	**dynam
*I"Voice	*
*clefG2	*
*k[b-e-a-]	*
*M3/8	*
=1	=1
!LO:TX:a:B:t=Langsam	!
[16e-LL 16g	.
16e-] 16b-	.
[16e- 16g	.
16e-_ 16b-	.
16e-] 16g	.
16e-JJ 16b-	.
=2	=2
[16e-LL 16g	.
16e-_ 16cc	.
16e-_ 16g	.
16e-_ 16cc	.
16e-_ 16g	.
16e-JJ] 16cc	.
=3	=3
[16dLL 16cc	.
16d_ 16f	.
16d_ 16cc	.
16d_ 16f	.
16d_ 16b-	.
16dJJ] 16f	.
=4	=4
[16cLL 16b- [16ee-	.
16c_ 16e- 16ee-_	.
16c_ 16b- 16ee-_	.
16c_ 16e- 16ee-_	.
16c_ 16a- 16ee-_	.
16cJJ] 16e- 16ee-]	.
=5	=5
[16B-LL 16a- [16b- [16ee- [16bb-	.
16B-_ 16e- 16b-_ 16ee-_ 16bb-_	.
16B-_ 16a- 16b-_ 16ee-_ 16bb-_	.
16B-_ 16e- 16b-_ 16ee-_ 16bb-_	.
16B-_ 16g 16b-_ 16ee-_ 16bb-_	.
16B-JJ] 16e- 16b-] 16ee-] 16bb-]	.
=6	=6
[16B-LL 16f [16b- [16ee- [16bb-	.
16B-_ 16a- 16b-_ 16ee-] 16bb-_	.
16B-_ 16f 16b-_ 16dd 16bb-_	.
16B-_ 16a- 16b-_ 16cc 16bb-_	.
16B-_ 16f 16b-_ [16dd 16bb-_	.
16B-JJ] 16a- 16b-_ 16dd] 16bb-_	.
=7	=7
8e-L 8g 8b-] 8ee- 8bb-]	.
16gL	.
16b-	.
16g	.
16b-JJ	.
=8	=8
[16e-LL 16g [16b-	.
16e-] 16b-]	.
[16e- 16g [16b-	.
16e-_ 16b-_	.
16e-] 16g 16b-]	.
16e-JJ 16b-	.
=9	=9
[16e-LL 16g [16cc	.
16e-_ 16cc_	.
16e-_ 16g 16cc_	.
16e-_ 16cc]	.
16e-_ 16g [16cc	.
16e-JJ] 16cc]	.
=10	=10
[16GLL [16e- 16g [16ee-	.
16G_ 16e-_ 16b- 16ee-_	.
16G_ 16e-_ 16g 16ee-_	.
16G] 16e-] 16b- 16ee-]	.
[16B- [16f 16a- [16dd	.
16B-JJ] 16f] 16b- 16dd]	.
=11	=11
[16e-LL 16g [16ee-	.
16e-_ 16b- 16ee-_	.
16e-_ 16g 16ee-_	.
16e-_ 16b- 16ee-_	.
16e-_ 16g 16ee-_	.
16e-JJ] 16b- 16ee-]	.
=12	=12
[16e-LL 16g [16b-	.
16e-] 16b-]	.
[16e- 16g [16b-	.
16e-_ 16b-_	.
16e-] 16g 16b-]	.
16e-JJ 16b-	.
=13	=13
[16e-LL 16g [16cc	.
16e-_ 16cc_	.
16e-_ 16g 16cc_	.
16e-_ 16cc]	.
16e-_ 16g [16cc	.
16e-JJ] 16cc]	.
=14	=14
[16GLL [16e- 16g [16ee-	.
16G_ 16e-_ 16b- 16ee-_	.
16G_ 16e-_ 16g 16ee-_	.
16G] 16e-] 16b- 16ee-]	.
[16B- [16f 16a- [16dd	.
16B-JJ] 16f] 16b- 16dd]	.
=15	=15
[16e-LL 16g [16ee-	.
16e-_ 16b- 16ee-_	.
16e-_ 16g 16ee-_	.
16e-_ 16b- 16ee-_	.
16e-_ 16g 16ee-_	.
16e-JJ] 16b- 16ee-]	.
=16	=16
[16e-LL 16g-X 16an [16cc	.
16e-] 16cc]	.
[16e- 16g-X 16an [16cc	.
16e-_ 16cc_	.
16e-] 16g-X 16an 16cc]	.
16e-JJ 16cc	.
=17	=17
[16dLL 16f [16cc	.
16d_ 16cc_	.
16d_ 16f 16cc_	.
16d_ 16cc]	.
16d_ 16f [16b-	.
16dJJ] 16b-]	.
=18	=18
[16cLL 16e- 16g-X 16an	.
16c] 16a 16b-	.
[16An 16e- 16g-X 16cc	.
16A] 16cc 16dd	.
[16F 16e- 16f [16ee-	.
32FL_ [32an 32ee-]	.
32FJJJ] 32a] 32dd	.
=19	=19
[16B-LL 16d 16f [16b-	.
16B-_ 16b-_	.
16B-_ 16d 16f 16b-_	.
16B-] 16b-]	.
[16d 16f	.
16dJJ] 16b-	.
=20	=20
[16e-LL 16g-X 16an [16cc	.
16e-] 16cc]	.
[16e- 16g-X 16an [16cc	.
16e-_ 16cc_	.
16e-] 16g-X 16an 16cc]	.
16e-JJ 16cc	.
=21	=21
[16dLL 16f [16cc	.
16d_ 16cc_	.
16d_ 16f 16cc_	.
16d_ 16cc]	.
16d_ 16f [16b-	.
16dJJ] 16b-]	.
=22	=22
[16cLL 16e- 16a-	.
16c_ 16a- 16b-	.
16c_ 16e- 16cc	.
16c_ 16a- 16dd	.
16c_ 16e- [16ee-	.
32cL_ [32a- 32ee-]	.
32cJJJ] 32a-] 32dd	.
=23	=23
[16B-LL 16g [16ee-	.
16B-_ 16e- 16ee-_	.
16B-_ 16g 16ee-_	.
16B-_ 16e- 16ee-]	.
16B-_ [16g	.
16B-JJ] 16e- 16g]	.
=24	=24
[16BB-LL [16A- 16d 16f	.
16BB-_ 16A-_ 16f 16g	.
16BB-_ 16A-_ 16d 16a-	.
16BB-_ 16A-_ 16f 16an	.
16BB-_ 16A-_ 16d [16b-	.
32BB-L_ 32A-_ [32f 32b-]	.
32BB-JJJ] 32A-] 32f] 32an	.
=25	=25
[16EE-LL 16G [16e- [16b-	.
16EE-_ 16B- 16e-_ 16b-_	.
16EE-_ 16G 16e-_ 16b-_	.
16EE-_ 16B- 16e-_ 16b-]	.
16EE-_ 16G 16e-_	.
16EE-JJ_ 16B- 16e-]	.
=26	=26
16EE-LL_ [16D [16A- [16d	.
16EE-_ 16D] 16A-_ 16d] 16a-	.
16EE-^_ [16C-X 16A-_ [16c-X	.
16EE-_ 16C-] 16A-_ 16c-] 16f	.
16EE-_ [16BB- 16A-_ [16B-	.
16EE-JJ_ 16BB-] 16A-] 16B-] 16f	.
=27	=27
16EE-LL_ [16E- [16G [16e-	.
16EE-_ 16E-] 16G_ 16e-] 16g	.
16EE-^_ [16Cn 16G_ [16cn	.
16EE-_ 16C] 16G_ 16c] 16e-	.
16EE-_ [16BB- 16G_ [16B-	.
16EE-JJ_ 16BB-] 16G] 16B-] 16e-	.
=28	=28
16EE-LL_ [16D [16A- 16d	.
16EE-_ 16D] 16A-_ 16a-	.
16EE-^_ [16C-X 16A-_ 16c-X	.
16EE-_ 16C-] 16A-_ 16f	.
16EE-_ [16BB- 16A-_ 16B-	.
16EE-JJ] 16BB-] 16A-] 16d	.
=29	=29
[16EE-LL [16BB- [16E- [16G 16e-	.
16EE-_ 16BB-_ 16E-_ 16G_ 16f	.
16EE-_ 16BB-_ 16E-_ 16G_ 16g	.
16EE-] 16BB-] 16E-] 16G] 16a-	.
16.b- 16.cc	.
32anJJk	.
=30	=30
16e-LL [16b-	.
16g 16b-_	.
16e- 16b-_	.
16g 16b-_	.
16e- 16b-_	.
16gJJ 16b-]	.
=31	=31
[16e-LL 16g [16b-	.
16e-] 16b-]	.
[16e- 16g [16b-	.
16e-_ 16b-_	.
16e-] 16g 16b-]	.
16e-JJ 16b-	.
=32	=32
[16e-LL 16g [16cc	.
16e-_ 16cc_	.
16e-_ 16g 16cc_	.
16e-_ 16cc]	.
16e-_ 16g [16cc	.
16e-JJ] 16cc]	.
=33	=33
[16GLL [16e- 16g [16ee-	.
16G_ 16e-_ 16b- 16ee-_	.
16G_ 16e-_ 16g 16ee-_	.
16G] 16e-] 16b- 16ee-]	.
[16B- [16f 16a- [16dd	.
16B-JJ] 16f] 16b- 16dd]	.
=34	=34
[16e-LL 16g [16ee-	.
16e-_ 16b- 16ee-_	.
16e-_ 16g 16ee-_	.
16e-_ 16b- 16ee-_	.
16e-_ 16g 16ee-_	.
16e-JJ] 16b- 16ee-]	.
=35	=35
[16e-LL 16g [16b-	.
16e-] 16b-]	.
[16e- 16g [16b-	.
16e-_ 16b-_	.
16e-] 16g 16b-]	.
16e-JJ 16b-	.
=36	=36
[16e-LL 16g [16cc	.
16e-_ 16cc_	.
16e-_ 16g 16cc_	.
16e-_ 16cc]	.
16e-_ 16g [16cc	.
16e-JJ] 16cc]	.
=37	=37
[16GLL [16e- 16g [16ee-	.
16G_ 16e-_ 16b- 16ee-_	.
16G_ 16e-_ 16g 16ee-_	.
16G] 16e-] 16b- 16ee-]	.
[16B- [16f 16a- [16dd	.
16B-JJ] 16f] 16b- 16dd]	.
=38	=38
[16e-LL 16g [16ee-	.
16e-_ 16b- 16ee-_	.
16e-_ 16g 16ee-_	.
16e-_ 16b- 16ee-_	.
16e-_ 16g 16ee-_	.
16e-JJ] 16b- 16ee-]	.
=39	=39
[16e-LL 16g-X 16an [16cc	.
16e-] 16cc]	.
[16e- 16g-X 16an [16cc	.
16e-_ 16cc_	.
16e-] 16g-X 16an 16cc]	.
16e-JJ 16cc	.
=40	=40
[16dLL 16f [16cc	.
16d_ 16cc_	.
16d_ 16f 16cc_	.
16d_ 16cc]	.
16d_ 16f [16b-	.
16dJJ] 16b-]	.
=41	=41
[16cLL 16e- 16g-X 16an	.
16c] 16a 16b-	.
[16An 16e- 16g-X 16cc	.
16A] 16cc 16dd	.
[16F 16e- 16f [16ee-	.
32FL_ [32an 32ee-]	.
32FJJJ] 32a] 32dd	.
=42	=42
[16B-LL 16d 16f [16b-	.
16B-_ 16b-_	.
16B-_ 16d 16f 16b-_	.
16B-] 16b-_	.
[16d 16f 16b-_	.
16dJJ] 16b-]	.
=43	=43
[16e-LL 16f 16an [16cc	.
16e-] 16cc]	.
[16e- 16f 16an [16cc	.
16e-_ 16cc_	.
16e-] 16f 16an 16cc]	.
16e-JJ 16cc 16dd	.
=44	=44
[16dLL 16f [16cc	.
16d_ 16cc_	.
16d_ 16f 16cc_	.
16d_ 16cc]	.
16d_ 16f [16b-	.
16dJJ] 16b-]	.
=45	=45
[16cLL 16e- 16a-	.
16c_ 16a- 16b-	.
16c_ 16e- 16cc	.
16c_ 16a- 16dd	.
16c_ 16e- [16ee-	.
32cL_ [32a- 32ee-]	.
32cJJJ] 32a-] 32dd	.
=46	=46
[16B-LL 16g [16ee-	.
16B-_ 16e- 16ee-_	.
16B-_ 16g 16ee-_	.
16B-_ 16e- 16ee-]	.
16B-_ [16g	.
16B-JJ] 16e- 16g]	.
=47	=47
[16BB-LL [16A- 16d 16f	.
16BB-_ 16A-_ 16f 16g	.
16BB-_ 16A-_ 16d 16a-	.
16BB-_ 16A-_ 16f 16an	.
16BB-_ 16A-_ 16d [16b-	.
32BB-L_ 32A-_ [32f 32b-]	.
32BB-JJJ] 32A-] 32f] 32an	.
=48	=48
[16EE-LL 16G [16b-	.
16EE-_ 16B- 16b-_	.
16EE-_ 16G 16b-_	.
16EE-_ 16B- 16b-]	.
16EE-_ 16G [16e-	.
16EE-JJ_ 16B- 16e-]	.
=49	=49
16EE-LL_ [16D [16A- [16d	.
16EE-_ 16D] 16A-_ 16d] 16a-	.
16EE-^_ [16C-X 16A-_ [16c-X	.
16EE-_ 16C-] 16A-_ 16c-] 16f	.
16EE-_ [16BB- 16A-_ [16B-	.
16EE-JJ_ 16BB-] 16A-] 16B-] 16d	.
=50	=50
16EE-LL_ [16E- [16G [16e-	.
16EE-_ 16E-] 16G_ 16e-] 16g	.
16EE-^_ [16Cn 16G_ [16cn	.
16EE-_ 16C] 16G_ 16c] 16e-	.
16EE-_ [16BB- 16G_ [16B-	.
16EE-JJ_ 16BB-] 16G] 16B-] 16e-	.
=51	=51
16EE-LL_ [16D [16A- 16d	.
16EE-_ 16D] 16A-_ 16a-	.
16EE-^_ [16C-X 16A-_ 16c-X	.
16EE-_ 16C-] 16A-_ 16f	.
16EE-_ [16BB- 16A-_ 16B-	.
16EE-JJ] 16BB-] 16A-] 16d	.
=52	=52
[16EE-LL [16BB- [16E- [16G 16e-	.
16EE-_ 16BB-_ 16E-_ 16G_ 16f	.
16EE-_ 16BB-_ 16E-_ 16G_ 16g	.
16EE-] 16BB-] 16E-] 16G] 16a-	.
16.b- 16.cc	.
32anJJk	.
=53	=53
16e-LL [16b-	.
16g 16b-_	.
16e- 16b-_	.
16g 16b-_	.
16e- 16b-_	.
16gJJ 16b-]	.
=54	=54
[16e-LL 16g [16b-	.
16e-] 16b-]	.
[16e- 16g [16b-	.
16e-_ 16b-_	.
16e-] 16g 16b-]	.
16e-JJ 16b-	.
=55	=55
[16e-LL 16g-X [16cc-X	.
16e-_ 16cc-_	.
16e-_ 16g-X 16cc-_	.
16e-_ 16cc-]	.
16e-_ 16g-X [16cc-X	.
16e-JJ] 16cc-]	.
=56	=56
[16G-XLL [16d-X 16cc-X [16dd-X	.
16G-_ 16d-_ 16g-X 16dd-_	.
16G-_ 16d-_ 16cc-X 16dd-_	.
16G-_ 16d-_ 16g-X 16dd-_	.
16G-_ 16d-_ 16b- 16dd-_	.
16G-JJ] 16d-] 16g-X 16dd-]	.
=57	=57
[16C-XLL [16G-X [16c-X 16g-X [16dd-X [16ee-	.
16C-_ 16G-_ 16c-_ 16e- 16dd-_ 16ee-_	.
16C-_ 16G-_ 16c-_ 16g-X 16dd-_ 16ee-_	.
16C-_ 16G-_ 16c-_ 16e- 16dd-] 16ee-_	.
16C-_ 16G-_ 16c-_ 16g-X [16cc-X 16ee-_	.
16C-JJ] 16G-] 16c-] 16e- 16cc-] 16ee-]	.
=58	=58
[16BB-LL [16F [16B- 16b- [16ee- [16ff	.
16BB-_ 16F_ 16B-_ 16f 16ee-_ 16ff_	.
16BB-_ 16F_ 16B-_ 16b- 16ee-_ 16ff_	.
16BB-_ 16F_ 16B-_ 16f 16ee-] 16ff_	.
16BB-_ 16F_ 16B-_ 16b- [16ddn 16ff_	.
16BB-JJ] 16F] 16B-] 16f 16dd] 16ff]	.
=59	=59
4.EE- 4.E- 4.gn 4.dd-X [4.ee- 4.gg	.
=60	=60
4.AAA- 4.AA- 4.a- 4.cc 4.ee-] 4.aa-	.
=61	=61
4.r	.
=62	=62
[16cLL 16e- 16a-	.
16c_ 16a- 16b-	.
16c_ 16e- 16cc	.
16c_ 16a- 16dd	.
16c_ 16e- [16ee-	.
32cL_ [32a- 32ee-]	.
32cJJJ] 32a-] 32dd	.
=63	=63
[16B-LL 16g [16ee-	.
16B-_ 16e- 16ee-_	.
16B-_ 16g 16ee-_	.
16B-_ 16e- 16ee-]	.
16B-_ [16g	.
16B-JJ] 16e- 16g]	.
=64	=64
[16BB-LL [16A- 16d 16f	.
16BB-_ 16A-_ 16f 16g	.
16BB-_ 16A-_ 16d 16a-	.
16BB-_ 16A-_ 16f 16an	.
16BB-_ 16A-_ 16d [16b-	.
32BB-L_ 32A-_ [32f 32b-]	.
32BB-JJJ] 32A-] 32f] 32an	.
=65	=65
[16EE-LL 16G [16e- [16b-	.
16EE-_ 16B- 16e-_ 16b-_	.
16EE-_ 16G 16e-_ 16b-_	.
16EE-_ 16B- 16e-_ 16b-]	.
16EE-_ 16G 16e-_	.
16EE-JJ] 16B- 16e-]	.
=66	=66
[16E-LL 16A- [16d 16f	.
16E-_ 16B- 16d_ 16g	.
16E-_ 16A- 16d_ 16a-	.
16E-_ 16B- 16d_ 16an	.
16E-_ 16A-X 16d_ [16b- 16cc	.
32E-L_ [32B- 32d_ 32b-]	.
32E-JJJ] 32B-] 32d] 32an	.
=67	=67
[16E-LL 16G [16e- [16b-	.
16E-_ 16B- 16e-_ 16b-_	.
16E-_ 16G 16e-_ 16b-_	.
16E-_ 16B- 16e-_ 16b-_	.
16E-_ 16G 16e-_ 16b-_	.
16E-JJ] 16B- 16e-] 16b-]	.
=68	=68
[16e-LL 16g [16b-	.
16e-] 16b-]	.
[16e- 16g [16b-	.
16e-_ 16b-_	.
16e-] 16g 16b-]	.
16e-JJ 16b-	.
=69	=69
[16e-LL 16g-X [16cc-X	.
16e-_ 16cc-_	.
16e-_ 16g-X 16cc-_	.
16e-_ 16cc-]	.
16e-_ 16g-X [16cc-X	.
16e-JJ] 16cc-]	.
=70	=70
[16G-XLL [16d-X 16cc-X [16dd-X	.
16G-_ 16d-_ 16g-X 16dd-_	.
16G-_ 16d-_ 16cc-X 16dd-_	.
16G-_ 16d-_ 16g-X 16dd-_	.
16G-_ 16d-_ 16b- 16dd-_	.
16G-JJ] 16d-] 16g-X 16dd-]	.
=71	=71
[16C-XLL [16G-X [16c-X 16g-X [16dd-X [16ee-	.
16C-_ 16G-_ 16c-_ 16e- 16dd-_ 16ee-_	.
16C-_ 16G-_ 16c-_ 16g-X 16dd-_ 16ee-_	.
16C-_ 16G-_ 16c-_ 16e- 16dd-] 16ee-_	.
16C-_ 16G-_ 16c-_ 16g-X [16cc-X 16ee-_	.
16C-JJ] 16G-] 16c-] 16e- 16cc-] 16ee-]	.
=72	=72
[16BB-LL [16F [16B- 16b- [16ee- [16ff	.
16BB-_ 16F_ 16B-_ 16f 16ee-_ 16ff_	.
16BB-_ 16F_ 16B-_ 16b- 16ee-_ 16ff_	.
16BB-_ 16F_ 16B-_ 16f 16ee-] 16ff_	.
16BB-_ 16F_ 16B-_ 16b- [16ddn 16ff_	.
16BB-JJ] 16F] 16B-] 16f 16dd] 16ff]	.
=73	=73
4.EE- 4.BB- 4.E- 4.gn 4.dd-X [4.ee- 4.gg	.
=74	=74
4.AAA- 4.AA- 4.a- 4.cc 4.ee-] 4.aa-	.
=75	=75
4.r	.
=76	=76
!	!LO:DY:a
[16cLL 16e- 16a-	pp
16c_ 16a- 16b-	.
16c_ 16e- 16cc	.
16c_ 16a- 16dd	.
16c_ 16e- [16ee-	.
32cL_ [32a- 32ee-]	.
32cJJJ] 32a-] 32dd	.
=77	=77
[16B-LL 16g [16ee-	.
16B-_ 16e- 16ee-_ 16ff	.
16B-_ 16g 16ee-_ 16gg	.
16B-_ 16e- 16ee-] 16aa-	.
16B-^_ [16g [16bb- 16ccc	.
32B-L_ [32e- 32g_ 32bb-]	.
32B-JJJ] 32e-] 32g] 32aan	.
=78	=78
[16BB-LL 16A- 16f [16dd [16bb-	.
16BB-_ 16B- 16g 16dd_ 16bb-_	.
16BB-_ 16A- 16a- 16dd_ 16bb-_	.
16BB-_ 16B- 16an 16dd_ 16bb-_	.
16BB-_ 16A-X [16b- 16dd_ 16bb-_	.
32BB-L_ [32B- 32b-] 32dd_ 32bb-_	.
32BB-JJJ] 32B-] 32an 32dd] 32bb-]	.
=79	=79
[16E-LL 16G 16e- [16b- [16ee-	.
16E-_ 16B- 16f 16b-_ 16ee-]	.
16E-_ 16G 16g 16b-_	.
16E-_ 16B- 16a- 16b-_	.
16E-_ 16G 16b-_	.
32E-L_ [32B- 32b-_	.
32E-JJJ] 32B-] 32an 32b-_	.
=80	=80
[16E-LL 16A- [16d [16f 16b-_	.
16E-_ 16B- 16d_ 16f_ 16b-_	.
16E-_ 16A- 16d_ 16f_ 16b-_	.
16E-_ 16B- 16d_ 16f_ 16b-_	.
16E-_ 16A- 16d_ 16f_ 16b-_	.
16E-JJ] 16B- 16d] 16f] 16b-_	.
=81	=81
[16E-LL 16G [16e- [16g 16b-_	.
16E-_ 16B- 16e-_ 16g_ 16b-_	.
16E-_ 16G 16e-_ 16g_ 16b-_	.
16E-_ 16B- 16e-] 16g] 16b-]	.
16E-_ 16e- [16g	.
16E-JJ] 16B- 16g]	.
=82	=82
4.EE- 4.BB- 4.E- 4.G 4.B- 4.e-	.
==	==
*-	*-
!!!YEM: OpenScore (CC0)
